X: 305781
M: 2/4
L: 1/16
K: F
c2c2 |\
f2f2 g2g2 | a4 f2f2 | d2d2 g2g2 | fedc =Bcde |\
f2f2 g2g2 | a4 f2f2 | defd efge | f4 H|]
c=BcA fefc | agaf cBcA | BdcB AGFE | F2G2A2B2 |\
c=BcA fefc | agaf cdcB  AGFE | F6 |]


